public/assests/icons/arrow-medium.svg

<svg width="25" height="8" viewBox="0 0 25 8" fill="none" xmlns="http://www.w3.org/2000/svg">
<path d="M24.3536 4.05644C24.5488 3.86117 24.5488 3.54459 24.3536 3.34933L21.1716 0.167349C20.9763 -0.0279133 20.6597 -0.0279134 20.4645 0.167349C20.2692 0.362611 20.2692 0.679193 20.4645 0.874456L23.2929 3.70288L20.4645 6.53131C20.2692 6.72657 20.2692 7.04315 20.4645 7.23842C20.6597 7.43368 20.9763 7.43368 21.1716 7.23842L24.3536 4.05644ZM-4.21251e-08 4.20288L24 4.20288L24 3.20288L4.21251e-08 3.20288L-4.21251e-08 4.20288Z" fill="white"/>
</svg>

<svg width="25" height="8" fill="none" xmlns="http://www.w3.org/2000/svg"><path d="M24.3536 4.05644c.1952-.19527.1952-.51185 0-.70711L21.1716.16735c-.1953-.19526-.5119-.19526-.7071 0-.1953.19526-.1953.51184 0 .7071l2.8284 2.82843-2.8284 2.82843c-.1953.19526-.1953.51184 0 .70711.1952.19526.5118.19526.7071 0l3.182-3.18198ZM0 4.20288h24v-1H0v1Z" fill="#fff"/></svg>
